img/facebook.svg

<svg width="20" height="19" viewBox="0 0 20 19" fill="none" xmlns="http://www.w3.org/2000/svg">
<path d="M10.001 0.00195312C4.47895 0.00195312 0.00195312 4.25373 0.00195312 9.49794C0.00195312 14.2369 3.65795 18.1648 8.43895 18.88V12.2435H5.89895V9.49794H8.43895V7.40576C8.43895 5.02393 9.93195 3.7105 12.215 3.7105C13.309 3.7105 14.455 3.8957 14.455 3.8957V6.23099H13.191C11.951 6.23099 11.563 6.96415 11.563 7.71536V9.49604H14.334L13.891 12.2416H11.563V18.8781C16.344 18.1667 20 14.2379 20 9.49794C20 4.25373 15.523 0.00195312 10.001 0.00195312V0.00195312Z" fill="#BDBDBD"/>
</svg>

<svg width="20" height="19" fill="none" xmlns="http://www.w3.org/2000/svg"><path d="M10.001.002C4.479.002.002 4.254.002 9.498c0 4.739 3.656 8.667 8.437 9.382v-6.636h-2.54V9.497h2.54V7.406c0-2.382 1.493-3.695 3.776-3.695 1.094 0 2.24.185 2.24.185V6.23h-1.264c-1.24 0-1.628.733-1.628 1.484v1.781h2.771l-.443 2.746h-2.328v6.636c4.781-.711 8.437-4.64 8.437-9.38C20 4.254 15.523.002 10.001.002z" fill="#BDBDBD"/></svg>
